phone-check-outline.svg

<svg fill="currentColor" viewBox="0 0 24 24"><path d="M20 15.5a11.4 11.4 0 0 1-3.57-.57 1 1 0 0 0-1 .25l-2.2 2.2a15.1 15.1 0 0 1-6.59-6.59l2.2-2.2a1 1 0 0 0 .25-1A11.4 11.4 0 0 1 8.5 4a1 1 0 0 0-1-1H4a1 1 0 0 0-1 1 17 17 0 0 0 17 17 1 1 0 0 0 1-1v-3.5a1 1 0 0 0-1-1M5 5h1.54A12.5 12.5 0 0 0 7 7.59L5.79 8.8A15 15 0 0 1 5 5m14 14a15 15 0 0 1-3.8-.76L16.41 17a12.3 12.3 0 0 0 2.59.45m-4-6.01-3.71-3.7 1.42-1.42L15 8.59l5.29-5.3 1.42 1.42Z"/></svg>

<svg  viewBox="0 0 24 24" fill="currentColor"><path  d="M20 15.5A11.36 11.36 0 0 1 16.43 14.93A1 1 0 0 0 15.43 15.18L13.23 17.38A15.1 15.1 0 0 1 6.64 10.79L8.84 8.59A1 1 0 0 0 9.09 7.59A11.36 11.36 0 0 1 8.5 4A1 1 0 0 0 7.5 3H4A1 1 0 0 0 3 4A17 17 0 0 0 20 21A1 1 0 0 0 21 20V16.5A1 1 0 0 0 20 15.5M5 5H6.54A12.54 12.54 0 0 0 7 7.59L5.79 8.8A15 15 0 0 1 5 5M19 19A15 15 0 0 1 15.2 18.24L16.41 17A12.31 12.31 0 0 0 19 17.45M15 11.44L11.29 7.74L12.71 6.32L15 8.59L20.29 3.29L21.71 4.71Z"/></svg>
